X: 10211
M: 3/4
L: 1/8
K: Bb
|:\
vB,6 | (D4F2) | (E4G2) | F6 |\
(E4G2) | F4 |\
[1 B6 | (A4f2) | B6- | B4z2 :|\
[2 B6 | (g4f2) | B6- | B2 ||
|: (ufgfg) |\
f2(.d2.d2) | g2(gaga) | g2(.e2.e2) | a2(abab) |\
a2(.f2.f2) | (ga)bc'd'e' | f'6 | f2(fgfg) |
f2(.d2.d2) | efgabc' | d'4f'2 | (f'e')ge'd'c' |\
(e'd')fe'd'c' | (d'c')ed'c'a |[1 b2 :|[2 b2"_D.C. Fine."z2z2 |]


